X: 1
T: Snoa efter H\"o\"ok Olle
R: march, g\aangl\aat
Z: 2005 John Chambers <jc@trillian.mit.edu>
N: handwritten MS labelled "1A9"
M: 2/4
L: 1/16
K: G
GG \
| G2BB B2d2 | d6 GG | G2G2 B2d2 | g6 Bc \
| dddB eeeB | dddB eeeB | d2e2 f3g |
| ~g2f2 [f2A2]AB | cccA dddA | cccA dddA \
| cccd efga | b2g2 g2Bc | dddB eeeB |
| dddB eeeB | d2g2 b3d' | d'2c'2 c'4 \
| c'2ee e3c' | b2dd d2bb | b2a2 e2f2 | g4 g2z2 ||
|: B2cB .A2.B2 | e4 d4 | d2G2 A2B2 | c6 c2 \
| [G,2E2c2]dc B2c2 | [f4c4] [e4c4] | e2ge d2c2 | B6 d2 |
| d2ed ^c2d2 | c'4 b4 | b2c'b .a2.g2 | e6 e2 \
| d2~d2 ^c2d2 | .b2.f2 a3g | gffd e2f2 | g4 g2z2 :|
